X: 476
T: A Whack At The Whigs
R: slip jig
M: 9/8
K: Gdorian
|:d|cAG GDG G2 d|cAG FAc fed|cAG GDG G2 A|FAc fed cA:|
|:F|G2 g ga^f g2 G|G2 g g2 a bag|1 d2 e fge f2 d|cAc fed cA:|
[2 bag aa/g/f gfe|dcA FAc fc||
|:A|BG/A/B AFA G2 A|BAB GB/c/d cBA|1 BGB AF/G/A G2 A|FAc fed cF:|
[2 fd/e/f ed^c d2 A|FAc fed c2||

